resources/svg/projects.svg

<svg viewBox="0 0 24 24"><path fill="none" stroke="currentColor" stroke-width="2" d="M9 15v8H1v-8h8zm14 0v8h-8v-8h8zM9 1v8H1V1h8zm14 0v8h-8V1h8z"/></svg>

<svg xmlns="http://www.w3.org/2000/svg" viewBox="0 0 24 24" fill="currentColor"><path fill="none" stroke="currentColor" stroke-width="2" d="M9,15 L9,23 L1,23 L1,15 L9,15 Z M23,15 L23,23 L15,23 L15,15 L23,15 Z M9,1 L9,9 L1,9 L1,1 L9,1 Z M23,1 L23,9 L15,9 L15,1 L23,1 Z"/></svg>
